X:1
T:The Head-Light -- Reel
R:reel
C:T. DENSMORE.
B:Ryan's Mammoth Collection
N: 393
Z: Contributed by Ray Davies,  ray:davies99.freeserve.co.uk
M:2/4
L:1/16
K:D
uD2|\
DA,A,D FDDF | AddB .A2(FA) | GBEG F"4"ADF | EFGE DCB,A, |
DA,A,D FDDF | AddB .A2(FA) | GBEG F"4"ADF | EDCE D2 :|
|:vef|\
afdf gece | fdAd "4"e2(dc) | dDEF GABc | defg .e2(fg) |
afge fd"4"ec | dABG AFGE | FDED A,DFD | EDCE D2 :|
